**kern	**kern	**kern	**kern
*MM60	*MM60	*MM60	*MM60
*k[b-]	*k[b-]	*k[b-]	*k[b-]
*M3/8	*M3/8	*M3/8	*M3/8
*tb32	*tb32	*tb32	*tb32
=1	=1	=1	=1
4.r	8r	4.r	4.r
.	8cc	.	.
.	8b-	.	.
=2	=2	=2	=2
4.r	16a	4.r	4.r
.	16cc	.	.
.	16f	.	.
.	16a	.	.
.	16g	.	.
.	16b-	.	.
=3	=3	=3	=3
4.r	16a	4.r	4.r
.	16dd	.	.
.	8.cc	.	.
.	16b-	.	.
=4	=4	=4	=4
4.r	16a	4.r	4.r
.	16cc	.	.
.	16f	.	.
.	16a	.	.
.	16g	.	.
.	16b-	.	.
=5	=5	=5	=5
4.r	16a	4.r	4.r
.	16dd	.	.
.	8.cc	.	.
.	16b-	.	.
=6	=6	=6	=6
8r	16a	4.r	4.r
.	16g	.	.
8ff	16f	.	.
.	16g	.	.
8ff	16a	.	.
.	16b-	.	.
=7	=7	=7	=7
16ee	16cc	4.r	4.r
16gg	16g	.	.
16cc	16e	.	.
16ee	16cc	.	.
16dd	16b	.	.
16ff	16dd	.	.
=8	=8	=8	=8
16ee	16cc	4.r	4.r
16aa	16ff	.	.
8.gg	16ee	.	.
.	16dd	.	.
.	16cc	.	.
16ff	16b	.	.
=9	=9	=9	=9
16ee	16cc	4.r	4.r
16gg	16g	.	.
16cc	16e	.	.
16ee	16cc	.	.
16dd	16b	.	.
16ff	16dd	.	.
=10	=10	=10	=10
16ee	16cc	4.r	4.r
16aa	16ff	.	.
8.gg	16ee	.	.
.	16dd	.	.
.	16cc	.	.
16ff	16b	.	.
=11	=11	=11	=11
16ee	8cc	4.r	4.r
32cc	.	.	.
32dd	.	.	.
16ee	16r	.	.
16cc	32cc	.	.
.	32b-	.	.
8ff	16a	.	.
.	16f	.	.
=12	=12	=12	=12
16dd	8b-	4.r	4.r
32b-	.	.	.
32cc	.	.	.
16dd	16r	.	.
16b-	32b-	.	.
.	32a	.	.
16ee	16g	.	.
16r	16e	.	.
=13	=13	=13	=13
16cc	8a	4.r	4.r
32a	.	.	.
32b-	.	.	.
16cc	16r	.	.
16a	32a	.	.
.	32g	.	.
16dd	16f	.	.
16r	16d	.	.
=14	=14	=14	=14
16b-	8g	4.r	4.r
32g	.	.	.
32a	.	.	.
16b-	16r	.	.
16g	32g	.	.
.	32f	.	.
16cc	16e	.	.
16r	16c	.	.
=15	=15	=15	=15
8a	8f	8r	4.r
8g	4e	8c	.
[8cc	.	8B-	.
=16	=16	=16	=16
16cc]	4.f	16A	4.r
16ff	.	16c	.
16a	.	16F	.
16cc	.	16A	.
16b-	.	16G	.
16dd	.	16B-	.
=17	=17	=17	=17
4.cc	16f	16A	4.r
.	16b-	16d	.
.	16a	8.c	.
.	16g	.	.
.	16f	.	.
.	16e	16B-	.
=18	=18	=18	=18
16cc	4.f	16A	4.r
16ff	.	16d	.
16a	.	16F	.
16cc	.	16A	.
16b-	.	16G	.
16dd	.	16B-	.
=19	=19	=19	=19
4.cc	16f	16A	4.r
.	16b-	16d	.
.	16a	8.c	.
.	16g	.	.
.	16f	.	.
.	16e	16B-	.
=20	=20	=20	=20
4.cc	16f	16A	8r
.	16g	16G	.
.	16a	16F	8F
.	16g	16G	.
.	16f	16A	8F
.	16a	16B	.
=21	=21	=21	=21
16cc	8g	8c	16E
16ee	.	.	16G
16g	8e	8r	16C
16cc	.	.	16E
16b	8g	8r	16D
16dd	.	.	16F
=22	=22	=22	=22
16cc	16g	4.r	8E
16a	16e	.	.
16b	16d	.	8G
16g	16B	.	.
16a	16c	.	8F
16b	16d	.	.
=23	=23	=23	=23
16cc	4e	4.r	16E
16ee	.	.	16G
16g	.	.	16C
16cc	.	.	16E
16b	8f	.	16D
16dd	.	.	16F
=24	=24	=24	=24
16cc	8g	4.r	8E
16ee	.	.	.
16b	16d	.	8G
16g	16B	.	.
16a	16c	.	8F
16b	16d	.	.
=25	=25	=25	=25
8cc	8e	4.r	16E
.	.	.	16C
16r	16r	.	8c
32cc	32e	.	.
32dd	32f	.	.
16ee	16g	.	8C
16cc	16e	.	.
=26	=26	=26	=26
8ff	8a	4.r	16A
.	.	.	16F
16r	16r	.	8B-
32b-	32d	.	.
32cc	32e	.	.
16dd	16f	.	8BB-
16b-	16d	.	.
=27	=27	=27	=27
8ee	8g	4.r	16G
.	.	.	16E
16r	16r	.	8A
32a	32c	.	.
32b-	32d	.	.
16cc	16e	.	8AA
16a	16c	.	.
=28	=28	=28	=28
8dd	8f	4.r	16F
.	.	.	16D
16r	16r	.	8G
32g	32B-	.	.
32a	32c	.	.
16b-	16d	.	8GG
16g	16B-	.	.
=29	=29	=29	=29
8r	8r	4.r	16E
.	.	.	16G
8cc	16e	.	16C
.	16f	.	16D
8b-	16g	.	16E
.	16e	.	16C
=30	=30	=30	=30
16a	16f	4.r	8FF
16cc	16a	.	.
16f	16c	.	8AA
16a	16f	.	.
16g	16e	.	8C
16b-	16g	.	.
=31	=31	=31	=31
16a	16f	4.r	8F
16dd	16b-	.	.
8.cc	16a	.	8AA
.	16g	.	.
.	16f	.	8C
16b-	16e	.	.
=32	=32	=32	=32
16a	16f	4.r	8FF
16cc	16a	.	.
16f	16c	.	8AA
16a	16f	.	.
16g	16e	.	8C
16b-	16g	.	.
=33	=33	=33	=33
16a	16f	4.r	8F
16dd	16B-	.	.
8.cc	16A	.	8AA
.	16G	.	.
.	16F	.	8C
16b-	16E	.	.
=34	=34	=34	=34
16a	8F	4.r	4FF
16g	.	.	.
16f	8f	.	.
16g	.	.	.
16a	8f	.	8r
16b	.	.	.
=35	=35	=35	=35
16cc	16e	4.r	4.r
16ee	16g	.	.
16g	16c	.	.
16cc	16e	.	.
16b	16d	.	.
16dd	16f	.	.
=36	=36	=36	=36
16cc	16e	4.r	4.r
16ff	16a	.	.
16ee	8.g	.	.
16dd	.	.	.
16cc	.	.	.
16b	16f	.	.
=37	=37	=37	=37
16cc	16e	4.r	4.r
16ee	16g	.	.
16g	16c	.	.
16cc	16e	.	.
16b	16d	.	.
16dd	16f	.	.
=38	=38	=38	=38
16cc	16e	4.r	4.r
16ff	16a	.	.
16ee	8.g	.	.
16dd	.	.	.
16cc	.	.	.
16b	16f	.	.
=39	=39	=39	=39
16cc	16e	4.r	8r
16dd	16f	.	.
16ee	16g	.	8C
16cc	16e	.	.
16dd	16f	.	8BB-
16ee	16g	.	.
=40	=40	=40	=40
16ff	4cc	4.r	16AA
16aa	.	.	16C
16cc	.	.	16FF
16ff	.	.	16AA
16ee	8b-	.	16GG
16gg	.	.	16BB-
=41	=41	=41	=41
16ff	16cc	4.r	8AA
16aa	16a	.	.
16ee	16g	.	8C
16cc	16e	.	.
16dd	16f	.	8BB-
16ee	16g	.	.
=42	=42	=42	=42
16ff	4a	4.r	16AA
16aa	.	.	16C
16cc	.	.	16FF
16ff	.	.	16AA
16ee	8b-	.	16GG
16gg	.	.	16BB-
=43	=43	=43	=43
16aa	16cc	4.r	8AA
16ccc	16a	.	.
16ee	16g	.	8C
16cc	16e	.	.
16dd	16f	.	8BB-
16ee	16g	.	.
=44	=44	=44	=44
8ff	8a	4.r	16AA
.	.	.	16FF
16r	16r	.	8BB-
32b-	32d	.	.
32cc	32e	.	.
16dd	16f	.	8r
16b-	16d	.	.
=45	=45	=45	=45
8ee	8g	4.r	16GG
.	.	.	16EE
16r	16r	.	8AA
32a	32c	.	.
32b-	32d	.	.
16cc	16e	.	8r
16a	16c	.	.
=46	=46	=46	=46
8dd	8f	4.r	16FF
.	.	.	16DD
16r	16r	.	8GG
32g	32B-	.	.
32a	32c	.	.
16b-	16d	.	8r
16g	16c-	.	.
=47	=47	=47	=47
8cc	8e	4.r	16EE
.	.	.	16CC
16r	16r	.	8FF
32f	32A	.	.
32g	32B-	.	.
16a	16c	.	8r
16f	16A	.	.
=48	=48	=48	=48
16b-	16d	4.r	[4.CC
32g	32B-	.	.
32a	32c	.	.
16b-	16d	.	.
16g	16B-	.	.
16b-	16d	.	.
16g	16B-	.	.
=49	=49	=49	=49
16a	16c	4.r	4.CC_
32f	32A	.	.
32g	32B-	.	.
16a	16c	.	.
16f	16A	.	.
16a	16c	.	.
16f	16A	.	.
=50	=50	=50	=50
4c 4e 4g	4E 4G	8C	4.CC_
.	.	8BB-	.
8c 8f	8F 8A 8C	8FF 8AA	.
=51	=51	=51	=51
4c 4e	4E 4G	4GG 4C	4.CC]
8B 8c 8e	8E 8G	8GG 8BB-	.
=2	=52	=52	=52
4.c 4.f	4.F 4.A	4.AA 4.C	4.FF
==	==	==	==
*-	*-	*-	*-
